!!!SOCIAL_FUNCTION:	songs for little children
!!!PDT:	1939
!!!OTL: No_116_"She_Will_Pick_Salmonberries".krn
!!!LANG: Non-Tone
!!!LING_GROUP: Wakashan
!!!REG: Pacific Northwest
**kern
*staff1
=1-
=
*clefF4
*k[b-e-a-]
*M2/4
4d\
8c\L
8d\J
=2
4e-\
8d\L
8e-\J
=3
4d\
8c\L
8c\J
=4
8c\
8r
4c\
=5
4d\
8c\L
8d\J
=6
4e-\
8d\L
8e-\J
=7
4d\
8c\L
8c\J
=8
8c\
8r
8r
8f\
=9
4.f\
8c\
=10||
*M5/8
8d\L
8c\
8c\
8c\
8e-\J
=11||
*M7/8
4d\
8c\L
8c\J
8r
8d\L
8d\J
=12||
*M2/4
4e-\
8e-\L
8e-\J
=13||
*M5/8
8d\
8r
8c\L
8c\
8e-\J
=14||
*M7/8
4d\
8c\L
8c\
8c\J
8r
8c\
=15||
*M3/8
8c\L
8c\
8c\J
=16||
*M3/4
4g\
4.f\
8e-\
=17
16g\LK
[8.f\J
4f\]
8e-\L
8d\J
=18||
*M2/4
4.c\
8r
=19||
*M3/4
2g\
8e-\L
8d\J
=20||
*M2/4
4c\
8.r
16d\
=21||
*M3/8
8e-\L
8e-\
8e-\J
=22||
*M5/8
16g\LK
8.f\
16e-\K
8.d\
8c\J
=23||
*M3/4
2d\
4e-\
=24||
*M2/4
4c\
8.r
16c\
=25||
=
*M3/4
2c\
8d\L
8c\J
=26||
*M2/4
4c\
8r
8An\
=27||
*M3/4
2c\
4c\
=28
4d\
4r
4c\
=29:|!
*M3/4
2c\
8d\L
8c\J
=30
4c\
2r
==
*-
